seeds/icons/folder_basic.svg

<svg id="Line" height="1.5rem" viewBox="0 0 64 64" width="1.5rem" xmlns="http://www.w3.org/2000/svg"><path d="m55.003 14.432h-22.159v-3.904c0-3.256-2.648-5.904-5.904-5.904h-17.943c-3.255 0-5.904 2.648-5.904 5.904v42.945c0 3.256 2.648 5.904 5.904 5.904h46.006c3.256 0 5.904-2.648 5.904-5.904v-33.11c0-3.27-2.648-5.931-5.904-5.931zm-46.006-7.809h17.943c2.153 0 3.904 1.751 3.904 3.904v4.904c0 .553.448 1 1 1h23.159c2.153 0 3.904 1.764 3.904 3.932v5.391c-1.042-.922-2.407-1.486-3.904-1.486h-46.006c-1.497 0-2.862.564-3.904 1.486v-15.227c0-2.153 1.751-3.904 3.904-3.904zm49.91 46.85c0 2.153-1.751 3.904-3.904 3.904h-46.006c-2.152 0-3.904-1.751-3.904-3.904v-23.301c0-2.153 1.751-3.904 3.904-3.904h46.006c2.153 0 3.904 1.751 3.904 3.904z"/></svg>

<svg xmlns="http://www.w3.org/2000/svg" width="1.5rem" height="1.5rem" viewBox="0 0 64 64"><path d="M55.003 14.432H32.844v-3.904a5.91 5.91 0 0 0-5.904-5.904H8.997a5.91 5.91 0 0 0-5.904 5.904v42.945a5.91 5.91 0 0 0 5.904 5.904h46.006a5.91 5.91 0 0 0 5.904-5.904v-33.11c0-3.27-2.648-5.931-5.904-5.931M8.997 6.623H26.94a3.91 3.91 0 0 1 3.904 3.904v4.904a1 1 0 0 0 1 1h23.159c2.153 0 3.904 1.764 3.904 3.932v5.391a5.87 5.87 0 0 0-3.904-1.486H8.997a5.87 5.87 0 0 0-3.904 1.486V10.527a3.91 3.91 0 0 1 3.904-3.904m49.91 46.85a3.91 3.91 0 0 1-3.904 3.904H8.997a3.91 3.91 0 0 1-3.904-3.904V30.172a3.91 3.91 0 0 1 3.904-3.904h46.006a3.91 3.91 0 0 1 3.904 3.904z"/></svg>
